static/assets/template/assets/img/icons/essential/detailed/Speaker.svg

<svg height="151" viewBox="0 0 100 151" width="100" xmlns="http://www.w3.org/2000/svg"><g fill="none" fill-rule="evenodd" transform="translate(1 1)"><g fill-rule="nonzero"><path d="m9.6 140.6h17.2v7.3h-17.2z" stroke-linecap="round" stroke-linejoin="round" stroke-width="3"/><path d="m70.3 140.6h17.2v7.3h-17.2z" stroke-linecap="round" stroke-linejoin="round" stroke-width="3"/><path d="m85.9 142.4h-74c-6 0-10.9-4.9-10.9-10.9v-119.8c0-6 4.9-10.9 10.9-10.9h74c6 0 10.9 4.9 10.9 10.9v119.8c0 6-4.9 10.9-10.9 10.9z"/><path d="m96.8 17.4v114.5c0 5.8-4.7 10.4-10.4 10.4h-70.8c-5.8 0-10.4-4.7-10.4-10.4v-114.5c0-5.8 4.7-10.4 10.4-10.4h70.8c2.5 0 4.9.9 6.7 2.4 2.2 1.9 3.7 4.8 3.7 8z" fill="#c1ddfe"/><path d="m93 9.4v112.7c0 5.8-4.7 10.4-10.4 10.4h-70.8c-2.5 0-4.9-.9-6.7-2.4v-112.7c0-5.8 4.7-10.4 10.4-10.4h70.8c2.6 0 4.9.9 6.7 2.4z"/><path d="m89.5 89.1c0 22.9-19.1 41.3-42.2 40.3-20.6-.9-37.4-17.7-38.4-38.3-.8-16.6 8.5-31.2 22.3-38 3.9-1.9 5.2-6.9 2.6-10.4-2.6-3.4-4-7.8-3.7-12.5.6-9.4 8.2-17 17.5-17.6 11-.7 20.1 8 20.1 18.8 0 4.2-1.4 8-3.7 11.2-2.6 3.5-1.2 8.5 2.7 10.4 13.5 6.3 22.8 20.1 22.8 36.1z"/></g><path d="m50.3.8h35.5c6 0 10.9 4.9 10.9 10.9v119.8c0 6-4.9 10.9-10.9 10.9h-74c-6 0-10.9-4.9-10.9-10.9v-119.8c0-6 4.9-10.9 10.9-10.9h4.6" stroke-linecap="round" stroke-linejoin="round" stroke-width="3"/><path d="m24.7.8h12.6" stroke-linecap="round" stroke-linejoin="round" stroke-width="3"/><circle cx="50.7" cy="33.1" fill-rule="nonzero" r="8.8"/><path d="m59.4 32.2c-.5 5.4-5 9.6-10.5 9.6-5.8 0-10.6-4.7-10.6-10.6 0-.6.1-1.3.2-1.9" stroke-linecap="round" stroke-linejoin="round" stroke-width="3"/><path d="m43 22.5c1.7-1.1 3.7-1.8 5.9-1.8 2.8 0 5.4 1.1 7.2 2.9" stroke-linecap="round" stroke-linejoin="round" stroke-width="3"/><path d="m89.5 89.1c0 22.9-19.1 41.3-42.2 40.3-20.6-.9-37.4-17.7-38.4-38.3-.8-16.6 8.5-31.2 22.3-38 3.9-1.9 5.2-6.9 2.6-10.4-2.6-3.4-4-7.8-3.7-12.5.6-9.4 8.2-17 17.5-17.6 11-.7 20.1 8 20.1 18.8 0 4.2-1.4 8-3.7 11.2-2.6 3.5-1.2 8.5 2.7 10.4 13.5 6.3 22.8 20.1 22.8 36.1z" stroke-linecap="round" stroke-linejoin="round" stroke-width="3"/><circle cx="49.2" cy="89.1" fill-rule="nonzero" r="31.1"/><circle cx="49.3" cy="89.2" fill-rule="nonzero" r="11.1"/><circle cx="51" cy="90.9" fill-rule="nonzero" r="9.5"/><path d="m44.1 79.1c1.5-.8 3.3-1.2 5.1-1.2 6.2 0 11.2 5 11.2 11.2s-5 11.2-11.2 11.2-11.2-5-11.2-11.2c0-1.3.2-2.5.6-3.6" stroke-linecap="round" stroke-linejoin="round" stroke-width="3"/><path d="m30.6 64.2c.9-.7 1.8-1.3 2.7-1.8" stroke-linecap="round" stroke-linejoin="round" stroke-width="3"/><path d="m59.9 118.3c-3.3 1.2-6.9 1.9-10.7 1.9-17.2 0-31.1-13.9-31.1-31.1 0-6.3 1.9-12.2 5.1-17" stroke-linecap="round" stroke-linejoin="round" stroke-width="3"/><path d="m43.9 58.5c1.7-.3 3.5-.5 5.3-.5 17.2 0 31.1 13.9 31.1 31.1 0 7.5-2.7 14.4-7.1 19.8" stroke-linecap="round" stroke-linejoin="round" stroke-width="3"/></g></svg>

<?xml version="1.0" encoding="UTF-8"?>
<svg width="100px" height="151px" viewBox="0 0 100 151" version="1.1" xmlns="http://www.w3.org/2000/svg" xmlns:xlink="http://www.w3.org/1999/xlink">
    <!-- Generator: Sketch 51.2 (57519) - http://www.bohemiancoding.com/sketch -->
    <title>Speaker</title>
    <desc>Created with Sketch.</desc>
    <defs></defs>
    <g id="Page-1" stroke="none" stroke-width="1" fill="none" fill-rule="evenodd">
        <g id="Speaker" transform="translate(1.000000, 1.000000)">
            <rect id="Rectangle-path" stroke-width="3" class="stroke-primary fill-primary-400" fill-rule="nonzero" stroke-linecap="round" stroke-linejoin="round" x="9.6" y="140.6" width="17.2" height="7.3"></rect>
            <rect id="Rectangle-path" stroke-width="3" class="stroke-primary fill-primary-400" fill-rule="nonzero" stroke-linecap="round" stroke-linejoin="round" x="70.3" y="140.6" width="17.2" height="7.3"></rect>
            <path d="M85.9,142.4 L11.9,142.4 C5.9,142.4 1,137.5 1,131.5 L1,11.7 C1,5.7 5.9,0.8 11.9,0.8 L85.9,0.8 C91.9,0.8 96.8,5.7 96.8,11.7 L96.8,131.5 C96.8,137.5 91.9,142.4 85.9,142.4 Z" id="Shape" class="fill-neutral" fill-rule="nonzero"></path>
            <path d="M96.8,17.4 L96.8,131.9 C96.8,137.7 92.1,142.3 86.4,142.3 L15.6,142.3 C9.8,142.3 5.2,137.6 5.2,131.9 L5.2,17.4 C5.2,11.6 9.9,7 15.6,7 L86.4,7 C88.9,7 91.3,7.9 93.1,9.4 C95.3,11.3 96.8,14.2 96.8,17.4 Z" id="Shape" fill="#C1DDFE" fill-rule="nonzero"></path>
            <path d="M93,9.4 L93,122.1 C93,127.9 88.3,132.5 82.6,132.5 L11.8,132.5 C9.3,132.5 6.9,131.6 5.1,130.1 L5.1,17.4 C5.1,11.6 9.8,7 15.5,7 L86.3,7 C88.9,7 91.2,7.9 93,9.4 Z" id="Shape" class="fill-primary-100" fill-rule="nonzero"></path>
            <path d="M89.5,89.1 C89.5,112 70.4,130.4 47.3,129.4 C26.7,128.5 9.9,111.7 8.9,91.1 C8.1,74.5 17.4,59.9 31.2,53.1 C35.1,51.2 36.4,46.2 33.8,42.7 C31.2,39.3 29.8,34.9 30.1,30.2 C30.7,20.8 38.3,13.2 47.6,12.6 C58.6,11.9 67.7,20.6 67.7,31.4 C67.7,35.6 66.3,39.4 64,42.6 C61.4,46.1 62.8,51.1 66.7,53 C80.2,59.3 89.5,73.1 89.5,89.1 Z" id="Shape" class="fill-neutral" fill-rule="nonzero"></path>
            <path d="M50.3,0.8 L85.8,0.8 C91.8,0.8 96.7,5.7 96.7,11.7 L96.7,131.5 C96.7,137.5 91.8,142.4 85.8,142.4 L11.8,142.4 C5.8,142.4 0.9,137.5 0.9,131.5 L0.9,11.7 C0.9,5.7 5.8,0.8 11.8,0.8 L16.4,0.8" id="Shape" class="stroke-primary" stroke-width="3" stroke-linecap="round" stroke-linejoin="round"></path>
            <path d="M24.7,0.8 L37.3,0.8" id="Shape" class="stroke-primary" stroke-width="3" stroke-linecap="round" stroke-linejoin="round"></path>
            <circle id="Oval" class="fill-primary-200" fill-rule="nonzero" cx="50.7" cy="33.1" r="8.8"></circle>
            <path d="M59.4,32.2 C58.9,37.6 54.4,41.8 48.9,41.8 C43.1,41.8 38.3,37.1 38.3,31.2 C38.3,30.6 38.4,29.9 38.5,29.3" id="Shape" class="stroke-primary" stroke-width="3" stroke-linecap="round" stroke-linejoin="round"></path>
            <path d="M43,22.5 C44.7,21.4 46.7,20.7 48.9,20.7 C51.7,20.7 54.3,21.8 56.1,23.6" id="Shape" class="stroke-primary" stroke-width="3" stroke-linecap="round" stroke-linejoin="round"></path>
            <path d="M89.5,89.1 C89.5,112 70.4,130.4 47.3,129.4 C26.7,128.5 9.9,111.7 8.9,91.1 C8.1,74.5 17.4,59.9 31.2,53.1 C35.1,51.2 36.4,46.2 33.8,42.7 C31.2,39.3 29.8,34.9 30.1,30.2 C30.7,20.8 38.3,13.2 47.6,12.6 C58.6,11.9 67.7,20.6 67.7,31.4 C67.7,35.6 66.3,39.4 64,42.6 C61.4,46.1 62.8,51.1 66.7,53 C80.2,59.3 89.5,73.1 89.5,89.1 Z" id="Shape" class="stroke-primary" stroke-width="3" stroke-linecap="round" stroke-linejoin="round"></path>
            <circle id="Oval" class="fill-primary-200" fill-rule="nonzero" cx="49.2" cy="89.1" r="31.1"></circle>
            <circle id="Oval" class="fill-neutral" fill-rule="nonzero" cx="49.3" cy="89.2" r="11.1"></circle>
            <circle id="Oval" class="fill-primary-400" fill-rule="nonzero" cx="51" cy="90.9" r="9.5"></circle>
            <path d="M44.1,79.1 C45.6,78.3 47.4,77.9 49.2,77.9 C55.4,77.9 60.4,82.9 60.4,89.1 C60.4,95.3 55.4,100.3 49.2,100.3 C43,100.3 38,95.3 38,89.1 C38,87.8 38.2,86.6 38.6,85.5" id="Shape" class="stroke-primary" stroke-width="3" stroke-linecap="round" stroke-linejoin="round"></path>
            <path d="M30.6,64.2 C31.5,63.5 32.4,62.9 33.3,62.4" id="Shape" class="stroke-primary" stroke-width="3" stroke-linecap="round" stroke-linejoin="round"></path>
            <path d="M59.9,118.3 C56.6,119.5 53,120.2 49.2,120.2 C32,120.2 18.1,106.3 18.1,89.1 C18.1,82.8 20,76.9 23.2,72.1" id="Shape" class="stroke-primary" stroke-width="3" stroke-linecap="round" stroke-linejoin="round"></path>
            <path d="M43.9,58.5 C45.6,58.2 47.4,58 49.2,58 C66.4,58 80.3,71.9 80.3,89.1 C80.3,96.6 77.6,103.5 73.2,108.9" id="Shape" class="stroke-primary" stroke-width="3" stroke-linecap="round" stroke-linejoin="round"></path>
        </g>
    </g>
</svg>
